client/src/assets/images/icon-edit.svg

<svg width="28" height="28" viewBox="0 0 28 28" fill="none" xmlns="http://www.w3.org/2000/svg">
<path fill-rule="evenodd" clip-rule="evenodd" d="M3.5 20.125V24.5H7.875L20.7783 11.5967L16.4033 7.22165L3.5 20.125ZM24.1616 8.21332C24.6166 7.75832 24.6166 7.02332 24.1616 6.56832L21.4316 3.83832C20.9766 3.38332 20.2416 3.38332 19.7866 3.83832L17.6516 5.97332L22.0266 10.3483L24.1616 8.21332Z" fill="#808080"/>
</svg>

<svg fill="none" height="28" viewBox="0 0 28 28" width="28" xmlns="http://www.w3.org/2000/svg"><path clip-rule="evenodd" d="m3.5 20.125v4.375h4.375l12.9033-12.9033-4.375-4.37505zm20.6616-11.91168c.455-.455.455-1.19 0-1.645l-2.73-2.73c-.455-.455-1.19-.455-1.645 0l-2.135 2.135 4.375 4.37498z" fill="#808080" fill-rule="evenodd"/></svg>
